X: 25352
T: Map On The Wall, The
R: reel
M: 4/4
K: Gmajor
BcdB cAFA|d2 e/f/g bgdc|BcdB cAFA|BdcA ~G2 GA|
BcdB cAFA|~d2 e/f/g bgdc|Bdgd ceAg|fdcA ~G2 GA:|
FGAF Dc ~c2|BGDc BDGD|FGAF Dc ~c2|B/c/d gf agdc|
FGAF Dc ~c2|BGDc BDGD|Bdgd ceAg|fdcA G2G2:|

